X: 7
I: linebreak $
T: La Caccia d'Amore
C: Giovanni Giacomo Gastoldi, Balletti a cinque voci, 1591
N: 
K: D minor
M: 4/4
L: 1/8
"F"f2 | "Gm"d2"F"f2 "Bb"f2"C"e2 | "F"f4 f2f2 | "Gm"d2"F"f2 "Bb"f2"C"e2 | "F"f4 z2ff | "C"e2e2 "Dm"d2d2 | "A"^c2c2 z2"F"ff | 
"C"e2"Dm"d2 "Asus4"d2"A"^c2 | "D"d4 z2 :: "Dm"d2 | "C"e2"G"d2 "Am"e2"D"^f2 | "G"g4 g2"F"c2 | "Bb"d2"F"c2 "Gm"d2"C"e2 | "F"f4 z2ff | 
"C"e2ee "Dm"d2dd | "A"^c2c2 z2"F"ff | "C"e2"D"d2 "Gm"d2"A"^c2 | "D"d6 :| 

